X:362
T:Reel 362
M:4/4
K:Dmaj
L:1/8
AG|F>D (3DDD FDDG|F>D (3DDD d2cd|e>E (3GFE c>E (3EFG ||Acdc BABc:||2 (3EFE =cA G2|EF|E2EG G2FG|A2GE FDEG|AGED D2CD|E>E (3CCE G>E (3EEE |G2GE D2FD|E>C (3CDE AGAG|F2ED D2FE|EGAF G2|GF|EDEF G2FG|EFGF D2GF|E>E (3FEF GEDC|EFGA BGFG|ECCB, C2CD|E>C (3CDE A2GF|EDED CDEF|DFGE D2|
